assets/img/icons/duotone-icons/Weather/Sun-fog.svg

<?xml version="1.0" encoding="UTF-8"?>
<svg width="24px" height="24px" viewBox="0 0 24 24" version="1.1" xmlns="http://www.w3.org/2000/svg" xmlns:xlink="http://www.w3.org/1999/xlink">
    <!-- Generator: Sketch 52.2 (67145) - http://www.bohemiancoding.com/sketch -->
    <title>Stockholm-icons / Weather / Sun-fog</title>
    <desc>Created with Sketch.</desc>
    <g id="Stockholm-icons-/-Weather-/-Sun-fog" stroke="none" stroke-width="1" fill="none" fill-rule="evenodd">
        <polygon id="Shape" points="0 0 24 0 24 24 0 24"></polygon>
        <path d="M8,14 C8,11.790861 9.790861,10 12,10 C14.209139,10 16,11.790861 16,14 C16,14 8,14 8,14 Z" id="Oval-8" fill="#335EEA"></path>
        <path d="M19.5,11 L21,11 C21.8284271,11 22.5,11.6715729 22.5,12.5 C22.5,13.3284271 21.8284271,14 21,14 L19.5,14 C18.6715729,14 18,13.3284271 18,12.5 C18,11.6715729 18.6715729,11 19.5,11 Z M16.0606602,6.87132034 L17.1213203,5.81066017 C17.7071068,5.22487373 18.6568542,5.22487373 19.2426407,5.81066017 C19.8284271,6.39644661 19.8284271,7.34619408 19.2426407,7.93198052 L18.1819805,8.99264069 C17.5961941,9.57842712 16.6464466,9.57842712 16.0606602,8.99264069 C15.4748737,8.40685425 15.4748737,7.45710678 16.0606602,6.87132034 Z M3,11 L4.5,11 C5.32842712,11 6,11.6715729 6,12.5 C6,13.3284271 5.32842712,14 4.5,14 L3,14 C2.17157288,14 1.5,13.3284271 1.5,12.5 C1.5,11.6715729 2.17157288,11 3,11 Z M12,2.5 C12.8284271,2.5 13.5,3.17157288 13.5,4 L13.5,5.5 C13.5,6.32842712 12.8284271,7 12,7 C11.1715729,7 10.5,6.32842712 10.5,5.5 L10.5,4 C10.5,3.17157288 11.1715729,2.5 12,2.5 Z M4.81066017,5.81066017 C5.39644661,5.22487373 6.34619408,5.22487373 6.93198052,5.81066017 L7.99264069,6.87132034 C8.57842712,7.45710678 8.57842712,8.40685425 7.99264069,8.99264069 C7.40685425,9.57842712 6.45710678,9.57842712 5.87132034,8.99264069 L4.81066017,7.93198052 C4.22487373,7.34619408 4.22487373,6.39644661 4.81066017,5.81066017 Z M2.5,16 L21.5,16 C21.7761424,16 22,16.2238576 22,16.5 C22,16.7761424 21.7761424,17 21.5,17 L2.5,17 C2.22385763,17 2,16.7761424 2,16.5 C2,16.2238576 2.22385763,16 2.5,16 Z M2.5,18 L7.5,18 C7.77614237,18 8,18.2238576 8,18.5 C8,18.7761424 7.77614237,19 7.5,19 L2.5,19 C2.22385763,19 2,18.7761424 2,18.5 C2,18.2238576 2.22385763,18 2.5,18 Z M14.5,20 L21.5,20 C21.7761424,20 22,20.2238576 22,20.5 C22,20.7761424 21.7761424,21 21.5,21 L14.5,21 C14.2238576,21 14,20.7761424 14,20.5 C14,20.2238576 14.2238576,20 14.5,20 Z M9.5,18 L21.5,18 C21.7761424,18 22,18.2238576 22,18.5 C22,18.7761424 21.7761424,19 21.5,19 L9.5,19 C9.22385763,19 9,18.7761424 9,18.5 C9,18.2238576 9.22385763,18 9.5,18 Z M2.5,20 L12.5,20 C12.7761424,20 13,20.2238576 13,20.5 C13,20.7761424 12.7761424,21 12.5,21 L2.5,21 C2.22385763,21 2,20.7761424 2,20.5 C2,20.2238576 2.22385763,20 2.5,20 Z" id="Combined-Shape" fill="#335EEA" opacity="0.3"></path>
    </g>
</svg>

<svg width="24" height="24" viewBox="0 0 24 24" xmlns="http://www.w3.org/2000/svg"><g fill="none" fill-rule="evenodd"><path d="M0 0h24v24H0z"/><path d="M8 14a4 4 0 118 0H8z" fill="#335EEA"/><path d="M19.5 11H21a1.5 1.5 0 010 3h-1.5a1.5 1.5 0 010-3zm-3.44-4.129l1.061-1.06a1.5 1.5 0 012.122 2.121l-1.061 1.06a1.5 1.5 0 11-2.121-2.12zM3 11h1.5a1.5 1.5 0 010 3H3a1.5 1.5 0 010-3zm9-8.5A1.5 1.5 0 0113.5 4v1.5a1.5 1.5 0 01-3 0V4A1.5 1.5 0 0112 2.5zM4.81 5.81a1.5 1.5 0 012.122 0l1.06 1.061a1.5 1.5 0 01-2.12 2.122L4.81 7.932a1.5 1.5 0 010-2.121zM2.5 16h19a.5.5 0 110 1h-19a.5.5 0 110-1zm0 2h5a.5.5 0 110 1h-5a.5.5 0 110-1zm12 2h7a.5.5 0 110 1h-7a.5.5 0 110-1zm-5-2h12a.5.5 0 110 1h-12a.5.5 0 110-1zm-7 2h10a.5.5 0 110 1h-10a.5.5 0 110-1z" fill="#335EEA" opacity=".3"/></g></svg>
